release/img/icons/tb_announcement.svg

<svg width="22" height="22" fill="none" xmlns="http://www.w3.org/2000/svg"><path d="M16.6 4H5.4c-.77 0-1.393.63-1.393 1.4L4 18l2.8-2.8h9.8c.77 0 1.4-.63 1.4-1.4V5.4c0-.77-.63-1.4-1.4-1.4zm-4.9 6.3h-1.4V6.1h1.4v4.2zm0 2.8h-1.4v-1.4h1.4v1.4z" fill="#787878"/></svg>

<svg width="22" height="22" viewBox="0 0 22 22" fill="none" xmlns="http://www.w3.org/2000/svg">
<path d="M16.6 4H5.4C4.63 4 4.007 4.63 4.007 5.4L4 18L6.8 15.2H16.6C17.37 15.2 18 14.57 18 13.8V5.4C18 4.63 17.37 4 16.6 4ZM11.7 10.3H10.3V6.1H11.7V10.3ZM11.7 13.1H10.3V11.7H11.7V13.1Z" fill="#787878"/>
</svg>
